img/trophy.svg

<svg xmlns="http://www.w3.org/2000/svg" height="512pt" version="1.1" viewBox="0 0 512.00099 512" width="512pt">
<g id="surface1">
<path d="M 497 36.953125 L 431.296875 36.953125 C 431.535156 29.675781 431.667969 22.355469 431.667969 15 C 431.667969 6.714844 424.949219 0 416.667969 0 L 95.332031 0 C 87.050781 0 80.332031 6.714844 80.332031 15 C 80.332031 22.355469 80.464844 29.675781 80.703125 36.953125 L 15 36.953125 C 6.714844 36.953125 0 43.667969 0 51.953125 C 0 119.164062 17.566406 182.574219 49.460938 230.507812 C 80.988281 277.894531 122.984375 305.074219 168.351562 307.71875 C 178.636719 318.910156 189.507812 328.035156 200.832031 334.996094 L 200.832031 401.664062 L 175.667969 401.664062 C 145.246094 401.664062 120.5 426.414062 120.5 456.832031 L 120.5 481.996094 L 119.433594 481.996094 C 111.148438 481.996094 104.433594 488.714844 104.433594 496.996094 C 104.433594 505.28125 111.148438 511.996094 119.433594 511.996094 L 392.566406 511.996094 C 400.851562 511.996094 407.566406 505.28125 407.566406 496.996094 C 407.566406 488.714844 400.851562 481.996094 392.566406 481.996094 L 391.5 481.996094 L 391.5 456.832031 C 391.5 426.414062 366.753906 401.664062 336.332031 401.664062 L 311.167969 401.664062 L 311.167969 334.996094 C 322.492188 328.039062 333.367188 318.910156 343.652344 307.71875 C 389.015625 305.074219 431.011719 277.894531 462.542969 230.507812 C 494.4375 182.574219 512 119.164062 512 51.953125 C 512 43.667969 505.285156 36.953125 497 36.953125 Z M 74.4375 213.890625 C 48.128906 174.355469 32.671875 122.644531 30.316406 66.953125 L 82.378906 66.953125 C 87.789062 135.414062 103.859375 198.695312 128.976562 248.925781 C 132.976562 256.925781 137.160156 264.484375 141.5 271.601562 C 116.550781 262.179688 93.460938 242.484375 74.4375 213.890625 Z M 361.5 456.832031 L 361.5 482 L 150.5 482 L 150.5 456.832031 C 150.5 442.957031 161.789062 431.664062 175.667969 431.664062 L 336.332031 431.664062 C 350.210938 431.664062 361.5 442.957031 361.5 456.832031 Z M 281.167969 401.664062 L 230.832031 401.664062 L 230.832031 348.03125 C 239.078125 350.203125 247.480469 351.332031 256 351.332031 C 264.519531 351.332031 272.921875 350.203125 281.167969 348.03125 Z M 290.457031 312.34375 C 289.78125 312.621094 289.132812 312.957031 288.511719 313.328125 C 277.910156 318.601562 267.015625 321.332031 256 321.332031 C 244.988281 321.332031 234.097656 318.601562 223.5 313.335938 C 222.871094 312.957031 222.21875 312.621094 221.535156 312.335938 C 209.773438 306.117188 198.394531 296.726562 187.632812 284.386719 C 187.066406 283.578125 186.429688 282.832031 185.722656 282.152344 C 175.039062 269.46875 164.988281 253.867188 155.808594 235.507812 C 128.242188 180.378906 112.320312 107.890625 110.507812 30 L 401.492188 30 C 399.675781 107.890625 383.753906 180.382812 356.191406 235.507812 C 347.011719 253.867188 336.960938 269.46875 326.28125 282.152344 C 325.570312 282.832031 324.925781 283.582031 324.363281 284.390625 C 313.601562 296.734375 302.21875 306.121094 290.457031 312.34375 Z M 437.5625 213.890625 C 418.539062 242.484375 395.449219 262.179688 370.5 271.601562 C 374.839844 264.484375 379.023438 256.925781 383.023438 248.925781 C 408.140625 198.695312 424.207031 135.414062 429.621094 66.953125 L 481.683594 66.953125 C 479.328125 122.644531 463.871094 174.355469 437.5625 213.890625 Z M 437.5625 213.890625 " style=" stroke:none;fill-rule:nonzero;fill:rgb(0%,0%,0%);fill-opacity:1;" />
</g>
</svg>

<svg xmlns="http://www.w3.org/2000/svg" viewBox="0 0 512 512" width="52" height="52"  fill="#d40e14"><path d="M497 36.953h-65.703c.238-7.277.371-14.598.371-21.953 0-8.285-6.719-15-15-15H95.332c-8.281 0-15 6.715-15 15 0 7.355.133 14.676.371 21.953H15c-8.285 0-15 6.715-15 15 0 67.211 17.566 130.621 49.46 178.555 31.528 47.387 73.524 74.566 118.892 77.21 10.285 11.192 21.156 20.317 32.48 27.278v66.668h-25.164c-30.422 0-55.168 24.75-55.168 55.168v25.164h-1.066c-8.286 0-15 6.719-15 15 0 8.285 6.714 15 15 15h273.132c8.286 0 15-6.715 15-15 0-8.281-6.714-15-15-15H391.5v-25.164c0-30.418-24.746-55.168-55.168-55.168h-25.164v-66.668c11.324-6.957 22.2-16.086 32.484-27.277 45.364-2.645 87.36-29.824 118.891-77.211C494.437 182.574 512 119.164 512 51.953c0-8.285-6.715-15-15-15zM74.437 213.891c-26.308-39.536-41.765-91.246-44.12-146.938h52.062c5.41 68.461 21.48 131.742 46.598 181.973 4 8 8.183 15.558 12.523 22.676-24.95-9.422-48.04-29.118-67.063-57.711zM361.5 456.832V482h-211v-25.168c0-13.875 11.29-25.168 25.168-25.168h160.664c13.879 0 25.168 11.293 25.168 25.168zm-80.332-55.168h-50.336v-53.633c8.246 2.172 16.648 3.301 25.168 3.301s16.922-1.129 25.168-3.3zm9.289-89.32c-.676.277-1.324.613-1.945.984-10.602 5.274-21.496 8.004-32.512 8.004-11.012 0-21.902-2.73-32.5-7.996a14.973 14.973 0 00-1.965-1c-11.762-6.219-23.14-15.61-33.902-27.95a15.144 15.144 0 00-1.91-2.234c-10.684-12.683-20.735-28.285-29.914-46.644C128.242 180.378 112.32 107.89 110.508 30h290.984c-1.816 77.89-17.738 150.383-45.3 205.508-9.18 18.36-19.231 33.96-29.91 46.644-.712.68-1.356 1.43-1.919 2.239-10.761 12.343-22.144 21.73-33.906 27.953zm147.106-98.453c-19.024 28.593-42.114 48.289-67.063 57.71a308.862 308.862 0 0012.523-22.675c25.118-50.23 41.184-113.512 46.598-181.973h52.063c-2.356 55.692-17.813 107.402-44.122 146.938zm0 0"/></svg>
